X:059
U: ~ = !turn!
%%topmargin 3cm
T:Dublin Reel
B:Traditional Irish Fiddle Tunes. Randy Miller and Jack Perron.
Z:Transcribed by Ralph Palmer
S:Paddy Cronin
R:Reel
L:1/8
M:C|
K:G
Gb ~B2 gBaB | gB ~B2 dBAB | gB ~B2 gBag | fgeB dBAB ::
GB ~B2 GBAB | GB ~B2 dBAB | GB ~B2 GBag | fgeB dBAB :|
K:D
ad ~d2 adbd | ad ~d2 edBd | ad ~d2 adba | fgec dBAB |
ad ~d2 adbd | ad ~d2 edBd | g2 ef Pg2 ag | fgec [D2d2] ef ||
K:G
g2 gf gdBd | ((3.g.g.f) ge dBAB | Jg2 ((3agf) g2 ((3bag) | fgeB dBAB |
g2 ((3agf) gdBd | ~g3 e dBAB | ((3gag) fg a2 ga | ((3bag) ef gbaf |]
